X:1
T:The Lord Is There
T:The Lord Is There
T:Francis Augustus Blackmer
T:Samuel Peach, 1886
T:Public Domain Courtesy of the Cyber Hymnal™
C:Francis Augustus Blackmer
Z:Public Domain
Z:Courtesy of the Cyber Hymnal™
%%score ( 1 2 ) ( 3 4 )
L:1/8
Q:1/4=83
M:2/4
K:G
V:1 treble 
V:2 treble 
V:3 bass 
V:4 bass 
V:1
 [DG]2 | [GB][EA] [DG][DF] | [DG]3 [DG] | [DA]2 D2 | [DG]3 [DA] | [DB][Ge] [Fd][E^c] | %6
w: 1.~In|Zi- on’s courts be-|low, “The|Lord is|there,” Where|pil- grims love to|
w: 2.~All|one in Christ, how|good! “The|Lord is|there,” Saved|by His pre- cious|
w: 3.~Where|saints ex- alt His|name, “The|Lord is|there,” Bear-|ing the cross and|
w: 4.~When|souls for mer- cy|cry, “The|Lord is|there.” To|bro- ken hearts how|
w: 5.~In|yon bright world a-|bove, “The|Lord is|there,” Where|all is peace and|
 ([Fd][FA] [GB])[EG] | [DF]2 [^CE]2 | D3 D | GD [DG][DA] | ([DB]>[CA] [B,G])[DA]/[DA]/ x3/2 | %11
w: go, * * “The|Lord is|there.” He’s|prom- ised there to|be, * * In the|
w: blood, * * “The|Lord is|there.” For|power di- vine they|plead, * * That they|
w: shame, * * “The|Lord is|there.” He|will their strength re-|new, * * Who His|
w: nigh! * * “The|Lord is|there.” With|joy be- hold Him|bring * * Un- to|
w: love, * * “The|Lord is|there.” No|sin, no griefs, or|pains; * * E- vil|
 [DB][FA] [GB][Fc] | ([Gd]>[Fc] [GB])[Gd] | [Ge][Gd] [Fc][GB] | ([GA]>[EB] [Ec])[Ee] | %15
w: midst of two or|three, * * Who|in His name a-|gree, * * “The|
w: might be His in-|deed, * * And|find in times of|need, * * “The|
w: pre- cious pre- cepts|do, * * And|prove the prom- ise|true, * * “The|
w: such the robe and|ring, * * While|saints and an- gels|sing, * * “The|
w: there no ent- rance|gains, * * Where|end- less glo- ry|reigns, * * “The|
 [Fd]2 [DF]2 | !fermata![DG]2 |] %17
w: Lord is|there.”|
w: Lord is|there.”|
w: Lord is|there.”|
w: Lord is|there.”|
w: Lord is|there.”|
V:2
 x2 | x4 | x4 | x2 D2 | x4 | x4 | x4 | x4 | D3 D | x D x2 | x11/2 | x4 | x4 | x4 | x4 | x4 | x2 |] %17
V:3
 [G,B,]2 | [G,D][C,C] [C,B,][D,A,] | [G,B,]3 [G,B,] | [D,F,]2 [D,C]2 | [G,,B,]3 [D,F,] | %5
 G,[E,B,] A,[A,,A,] | (A,D [G,D])[G,B,] | A,2 (A,G,) | [D,F,]3 D, | G,D, [B,,G,][D,F,] | %10
 G,3 ([D,F,]/[G,,G,])[D,F,]/[D,F,]/ | G,[D,D] [G,D][A,D] | D3 [B,D] | C[B,D] [A,D][G,D] | %14
 ([C,A,]>[B,,^G,] [A,,A,])[C,A,] | [D,A,]2 [D,C]2 | !fermata![G,,B,]2 |] %17
V:4
 x2 | x4 | x4 | x4 | x4 | G,A, x2 | D,2 x2 | A,2 A,,2 | x3 D, | G,D, x2 | G,3/2 x4 | G, x3 | %12
 (B,>A, G,) x | C x3 | x4 | x4 | x2 |] %17

